packages/core/src/svgs/tlos.svg

<svg width="24" height="24" viewBox="0 0 24 24" fill="none" xmlns="http://www.w3.org/2000/svg">
<g clip-path="url(#clip0_31_19820)">
<path d="M0 0H24V24H0V0Z" fill="url(#paint0_linear_31_19820)"/>
<path fill-rule="evenodd" clip-rule="evenodd" d="M6.51861 10.3643C6.24732 9.77799 5.78661 8.4867 6.11189 8.01227C6.43761 7.53827 7.42718 6.52727 7.88532 6.15742C7.98218 6.11284 8.28432 6.02027 8.71804 6.00442C9.15218 5.98942 11.5329 5.99842 12.669 6.00442C12.8756 5.67313 13.3393 5.1597 13.5099 5.14427C13.68 5.12884 15.6335 5.26513 16.5887 5.33542C16.7825 5.38642 17.1309 5.62256 16.9762 6.15742C16.821 6.69313 16.4212 7.78299 16.2403 8.26084L18.4286 12.0087C18.4029 12.6396 18.1458 14.2926 17.8826 14.8278C17.6572 15.2856 16.668 15.4111 15.954 15.5016C15.8332 15.517 15.7205 15.5316 15.6206 15.5461C15.3635 16.3077 13.5369 17.8793 8.72618 18.8247C8.02504 18.9623 7.43061 18.6597 7.19746 17.9928C6.34204 15.5457 5.42146 11.8 6.51861 10.3643ZM7.71775 10.1877C7.77732 10.2528 7.86046 10.4406 7.71775 10.6668L7.71689 10.6686C7.53775 10.9527 7.07189 11.6928 7.09375 13.0411C7.11175 14.1211 7.96289 16.5117 8.38632 17.5716C10.3252 17.2086 14.2963 16.1384 14.6705 14.7618C14.7005 14.6457 14.871 14.3916 15.3167 14.3041C15.4822 14.272 15.681 14.2471 15.8825 14.2227C16.359 14.1631 16.8493 14.1027 16.9436 13.9338C17.0507 13.7423 17.2702 12.7797 17.3666 12.3224C16.6016 11.1824 15.0673 8.79356 15.0493 8.35813C15.0313 7.92227 15.4577 6.90099 15.6733 6.4287H13.9796C13.8013 6.76984 13.3333 7.30299 12.8876 7.28584C12.4419 7.2687 9.80532 7.27856 8.54232 7.28584L7.09375 8.57584L7.71775 10.1877Z" fill="white"/>
</g>
<defs>
<linearGradient id="paint0_linear_31_19820" x1="0" y1="12" x2="24" y2="12" gradientUnits="userSpaceOnUse">
<stop stop-color="#AC72F8"/>
<stop offset="0.724" stop-color="#39297E"/>
<stop offset="1" stop-color="#AC72F8"/>
</linearGradient>
<clipPath id="clip0_31_19820">
<rect width="24" height="24" fill="white"/>
</clipPath>
</defs>
</svg>

<svg xmlns="http://www.w3.org/2000/svg" width="24" height="24" fill="none" viewBox="0 0 24 24"><g clip-path="url(#a)"><path fill="url(#b)" d="M0 0h24v24H0z"/><path fill="#fff" fill-rule="evenodd" d="M6.519 10.364c-.272-.586-.732-1.877-.407-2.352.326-.474 1.315-1.485 1.773-1.855.097-.044.4-.137.833-.153.434-.015 2.815-.006 3.951 0 .207-.33.67-.844.84-.86.171-.015 2.124.121 3.08.191.194.051.542.288.387.822-.155.536-.555 1.626-.736 2.104l2.189 3.748c-.026.63-.283 2.284-.546 2.819-.226.458-1.215.583-1.929.674l-.333.044c-.258.762-2.084 2.333-6.895 3.279-.701.137-1.295-.165-1.529-.832-.855-2.447-1.776-6.193-.678-7.629m1.199-.176c.06.065.142.253 0 .479l-.001.002c-.18.284-.645 1.024-.623 2.372.018 1.08.869 3.47 1.292 4.53 1.94-.362 5.91-1.433 6.285-2.81.03-.115.2-.37.646-.457.165-.032.364-.057.566-.081.476-.06.966-.12 1.06-.29.108-.19.327-1.153.424-1.61-.765-1.14-2.3-3.53-2.318-3.965s.409-1.457.624-1.93H13.98c-.179.342-.647.875-1.092.858s-3.083-.007-4.346 0l-1.448 1.29z" clip-rule="evenodd"/></g><defs><linearGradient id="b" x1="0" x2="24" y1="12" y2="12" gradientUnits="userSpaceOnUse"><stop stop-color="#AC72F8"/><stop offset=".724" stop-color="#39297E"/><stop offset="1" stop-color="#AC72F8"/></linearGradient><clipPath id="a"><path fill="#fff" d="M0 0h24v24H0z"/></clipPath></defs></svg>
